src/lib/packages/icons/src/assets/line/credit-card-change.svg

<svg width="24" height="24" viewBox="0 0 24 24" fill="none" xmlns="http://www.w3.org/2000/svg">
<path d="M3.00097 11.855C2.97397 11.855 2.94602 11.854 2.91802 11.851C2.50602 11.806 2.20902 11.435 2.25402 11.024C2.61702 7.70705 4.619 4.84996 7.609 3.38196C7.842 3.26796 8.11699 3.28195 8.33599 3.41895C8.55599 3.55595 8.68999 3.79703 8.68999 4.05603V7.10596C8.68999 7.51996 8.35399 7.85596 7.93999 7.85596C7.52599 7.85596 7.18999 7.51996 7.18999 7.10596V5.36499C5.26699 6.70299 4.00596 8.80401 3.74596 11.187C3.70396 11.571 3.37797 11.855 3.00097 11.855ZM21.082 12.26C20.669 12.216 20.3 12.512 20.255 12.924C19.995 15.3069 18.734 17.4079 16.811 18.7469V17.006C16.811 16.592 16.475 16.256 16.061 16.256C15.647 16.256 15.311 16.592 15.311 17.006V20.056C15.311 20.315 15.445 20.556 15.665 20.693C15.786 20.768 15.923 20.806 16.061 20.806C16.174 20.806 16.287 20.781 16.392 20.729C19.383 19.261 21.385 16.404 21.747 13.087C21.791 12.675 21.493 12.305 21.082 12.26ZM10.25 8.5V4.5C10.25 3.091 11.091 2.25 12.5 2.25H18.5C19.909 2.25 20.75 3.091 20.75 4.5V8.5C20.75 9.909 19.909 10.75 18.5 10.75H12.5C11.091 10.75 10.25 9.909 10.25 8.5ZM19.25 8.5V6.25H11.75V8.5C11.75 9.089 11.911 9.25 12.5 9.25H18.5C19.089 9.25 19.25 9.089 19.25 8.5ZM11.75 4.5V4.75H19.25V4.5C19.25 3.911 19.089 3.75 18.5 3.75H12.5C11.911 3.75 11.75 3.911 11.75 4.5ZM14.5 7.25H13C12.586 7.25 12.25 7.586 12.25 8C12.25 8.414 12.586 8.75 13 8.75H14.5C14.914 8.75 15.25 8.414 15.25 8C15.25 7.586 14.914 7.25 14.5 7.25ZM13.75 15.5V19.5C13.75 20.909 12.909 21.75 11.5 21.75H5.49999C4.09099 21.75 3.24999 20.909 3.24999 19.5V15.5C3.24999 14.091 4.09099 13.25 5.49999 13.25H11.5C12.909 13.25 13.75 14.091 13.75 15.5ZM4.74999 15.5V15.75H12.25V15.5C12.25 14.911 12.089 14.75 11.5 14.75H5.49999C4.91099 14.75 4.74999 14.911 4.74999 15.5ZM12.25 19.5V17.25H4.74999V19.5C4.74999 20.089 4.91099 20.25 5.49999 20.25H11.5C12.089 20.25 12.25 20.089 12.25 19.5ZM7.49999 18.25H5.99999C5.58599 18.25 5.24999 18.586 5.24999 19C5.24999 19.414 5.58599 19.75 5.99999 19.75H7.49999C7.91399 19.75 8.24999 19.414 8.24999 19C8.24999 18.586 7.91399 18.25 7.49999 18.25Z" fill="currentColor"/>
</svg>

<svg xmlns="http://www.w3.org/2000/svg" width="24" height="24" fill="none"><path fill="currentColor" d="M3.001 11.855a.75.75 0 0 1-.747-.831 9.638 9.638 0 0 1 5.355-7.642.75.75 0 0 1 1.081.674v3.05a.75.75 0 0 1-1.5 0V5.365a8.136 8.136 0 0 0-3.444 5.822.75.75 0 0 1-.745.668Zm18.081.405a.75.75 0 0 0-.827.664 8.14 8.14 0 0 1-3.444 5.823v-1.741a.75.75 0 0 0-1.5 0v3.05a.75.75 0 0 0 1.081.673 9.633 9.633 0 0 0 5.355-7.642.752.752 0 0 0-.665-.827ZM10.25 8.5v-4c0-1.409.841-2.25 2.25-2.25h6c1.409 0 2.25.841 2.25 2.25v4c0 1.409-.841 2.25-2.25 2.25h-6c-1.409 0-2.25-.841-2.25-2.25Zm9 0V6.25h-7.5V8.5c0 .589.161.75.75.75h6c.589 0 .75-.161.75-.75Zm-7.5-4v.25h7.5V4.5c0-.589-.161-.75-.75-.75h-6c-.589 0-.75.161-.75.75Zm2.75 2.75H13a.75.75 0 0 0 0 1.5h1.5a.75.75 0 0 0 0-1.5Zm-.75 8.25v4c0 1.409-.841 2.25-2.25 2.25h-6c-1.409 0-2.25-.841-2.25-2.25v-4c0-1.409.841-2.25 2.25-2.25h6c1.409 0 2.25.841 2.25 2.25Zm-9 0v.25h7.5v-.25c0-.589-.161-.75-.75-.75h-6c-.589 0-.75.161-.75.75Zm7.5 4v-2.25h-7.5v2.25c0 .589.161.75.75.75h6c.589 0 .75-.161.75-.75ZM7.5 18.25H6a.75.75 0 0 0 0 1.5h1.5a.75.75 0 0 0 0-1.5Z"/></svg>
